svg/u1f618.svg

<svg viewBox="0 0 128 128" xmlns="http://www.w3.org/2000/svg">
  <g id="facial_expressions">
    <radialGradient id="face_1_" cx="63.6" cy="512.9" gradientTransform="matrix(1 0 0 1 0 -450)" gradientUnits="userSpaceOnUse" r="56.9597">
      <stop offset="0.5" stop-color="#FDE030"/>
      <stop offset="0.92" stop-color="#F7C02B"/>
      <stop offset="1" stop-color="#F4A223"/>
    </radialGradient>
    <path id="face" d="M63.6,118.8c-27.9,0-58-17.5-58-55.9S35.7,7,63.6,7c15.5,0,29.8,5.1,40.4,14.4 c11.5,10.2,17.6,24.6,17.6,41.5s-6.1,31.2-17.6,41.4C93.4,113.6,79,118.8,63.6,118.8z" fill="url(#face_1_)"/>
    <path d="M111.49,29.67c5.33,8.6,8.11,18.84,8.11,30.23c0,16.9-6.1,31.2-17.6,41.4 c-10.6,9.3-25,14.5-40.4,14.5c-18.06,0-37-7.35-48.18-22.94c10.76,17.66,31,25.94,50.18,25.94c15.4,0,29.8-5.2,40.4-14.5 c11.5-10.2,17.6-24.5,17.6-41.4C121.6,50.16,118.13,38.84,111.49,29.67z" fill="#EB8F00"/>
    <path d="M120.39,82.08c-1.11-5.52-6.49-9.1-12.02-7.98c-0.82,0.17-1.62,0.43-2.37,0.79 c0.35-5.61-3.91-10.45-9.52-10.8c-3.57-0.22-6.99,1.44-9.02,4.38c-3.65,5.46-2.68,13.24-1,19.36c1,3.61-0.23,7.48-3.13,9.85l0,0 c20.28,3.89,30.23,0.1,35.55-8C120.38,87.45,120.92,84.71,120.39,82.08z" fill="#E53935"/>
    <path d="M98.09,100.78c-1.14,0-10.91-0.91-14.84-3.11c0.15-0.23,6-0.06,14.61,0.08 c2.93,0.06,5.85-0.25,8.69-0.94c4-1,7.76-3,10-6.53c1.3-2,2.65-4.74,2.4-7.15c-0.46-3.11-1.91-5.99-4.13-8.21 c1.71,0.52,3.25,1.48,4.47,2.78c3.28,3.94,2.8,9.58-0.23,14.22C115.25,97.84,108.32,100.78,98.09,100.78z" fill="#C62828"/>
    <path d="M90.56,67.63c1.18-1.05,2.66-1.72,4.24-1.89c1.62-0.12,3.5,0.69,3.84,2.28c0.13,1.1-0.23,2.2-1,3 c-0.73,0.85-1.63,1.52-2.32,2.39c-1.87,2.34-1.94,5.63-3.35,8.27c-0.5,0.93-1.51,1.87-2.47,1.44c-0.3-0.15-0.55-0.37-0.74-0.64 C85.38,78.36,86.6,71,90.56,67.63z" fill="#EF5350"/>
    <path d="M104.73,79.1c-0.37,0.26-0.82,0.37-1.27,0.31c-0.46-0.1-0.84-0.43-1-0.87 c-0.17-0.48-0.04-1.01,0.33-1.35c0.36-0.45,0.61-0.97,0.75-1.52c0.3-1.15,0.38-2.34,0.25-3.52c-0.15-1.89-1.52-4.65-2.3-6.38 c1.76,1.09,3.17,2.67,4.06,4.54c0.62,1.56,0.91,3.22,0.87,4.9c0.08,1.43-0.48,2.82-1.53,3.8L104.73,79.1z" fill="#C62828"/>
    <path d="M97.43,55.43l-0.19-0.27c-0.18-0.26-0.38-0.51-0.59-0.75c-0.71-0.82-1.53-1.55-2.42-2.17 c-1.2-0.84-2.5-1.53-3.87-2.05c-0.75-0.29-1.52-0.54-2.3-0.73c-0.39-0.1-0.82-0.2-1.25-0.28l-0.6-0.11 c0.19-0.11,0.38-0.22,0.58-0.32l1.75-0.92c1.14-0.58,2.2-1.08,3.1-1.49s1.64-0.69,2.14-0.88l0.76-0.28l0.22-0.08 c1.43-0.52,2.17-2.11,1.64-3.54c-0.39-1.05-1.37-1.77-2.49-1.81c-0.42-0.02-0.83-0.02-1.25,0c-1.01,0.09-2.02,0.26-3,0.51 c-1.34,0.33-2.65,0.77-3.93,1.3c-0.68,0.29-1.4,0.58-2.09,0.93s-1.44,0.74-2.06,1.08s-1.37,0.81-2,1.24s-1.28,0.88-1.88,1.32 c-1.11,0.82-2.15,1.73-3.13,2.7c-0.73,0.72-1.4,1.5-2,2.34C72.36,51.43,72.16,51.71,72,52l-0.14,0.23 c-0.37,0.65-0.46,1.42-0.25,2.14c0.03,0.24,0.09,0.47,0.17,0.69c0.57,1.41,2.18,2.1,3.6,1.53l0.25-0.1l0.29-0.12l0.24-0.05l0.8-0.2 c0.32-0.08,0.71-0.14,1.13-0.21c0.99-0.14,2-0.22,3-0.22c1.19,0,2.37,0.09,3.55,0.25c0.2,0,0.73,0.1,0.94,0.15l0.84,0.17 c0.59,0.13,1.16,0.25,1.69,0.42c0.96,0.26,1.91,0.6,2.82,1c0.61,0.27,1.19,0.59,1.76,0.94c0.4,0.24,0.6,0.38,0.6,0.38l0.28,0.21 c1.21,0.9,2.92,0.64,3.82-0.57c0.71-0.96,0.72-2.26,0.02-3.22L97.43,55.43z" fill="#422B0D"/>
    <path d="M72.86,84.93c1.71-1.51,2.78-3.6,3-5.87c0.19-3.6-0.73-4.84-1.91-6.41 c-2.71-3.65-10.4-2.78-10.4-2.78c-2,0.08-4.44,1.06-4.15,3.44c0.39,1.35,1.49,2.38,2.87,2.69c3,0.73,7.37,0,7.49,3.09 c0.14,3.46-5.18,2-5.6,5.7s5.6,3.19,5.6,5.71c0,1.93-2,2.26-4.07,2.7c-1.79,0.37-5.23,0.93-5.51,3s0.91,4.57,5.75,3.84 c7.61-1.15,10.17-5.32,10.17-7.88C76.15,89.39,74.96,86.74,72.86,84.93z" fill="#422B0D"/>
    <g id="eyes">
      <g id="eyebrows">
        <path d="M43.4,31.06L43.4,31.06c2.21-0.67,1.89-3.89-0.6-3.64c-1.94,0.23-3.83,0.76-5.6,1.58 c-4.84,2.16-8.66,6.1-10.68,11c-0.9,2.3,2.14,3.45,3.33,1.57C33.06,36.65,37.83,32.94,43.4,31.06z" fill="#422B0D"/>
      </g>
    </g>
    <path d="M43.67,40.94L43.67,40.94c-4.19,0-8,3.54-8,9.42s3.81,9.41,8,9.41l0,0c4.19,0,8-3.54,8-9.41 S47.86,40.94,43.67,40.94z" fill="#422B0D"/>
    <g id="peepers">
      <path d="M43.28,44.87L43.28,44.87c-1.42-0.68-3.13-0.08-3.82,1.34c-0.53,1.11-0.29,2.44,0.6,3.3l0,0 c1.42,0.68,3.13,0.08,3.82-1.34C44.41,47.06,44.17,45.73,43.28,44.87z" fill="#896024"/>
    </g>
  </g>
</svg>

<svg viewBox="0 0 128 128" xmlns="http://www.w3.org/2000/svg">
  <defs>
    <radialGradient id="face_1_" cx="63.6" cy="62.9" gradientUnits="userSpaceOnUse" r="56.9597">
      <stop offset="0.5" stop-color="#FDE030"/>
      <stop offset="0.92" stop-color="#F7C02B"/>
      <stop offset="1" stop-color="#F4A223"/>
    </radialGradient>
  </defs>
  <path id="face" d="M63.6,118.8 C35.7,118.8 5.6,101.3 5.6,62.9 C5.6,24.5 35.7,7 63.6,7 C79.1,7 93.4,12.1 104,21.4 C115.5,31.6 121.6,46 121.6,62.9 C121.6,79.8 115.5,94.1 104,104.3 C93.4,113.6 79,118.8 63.6,118.8 Z" fill="url(#face_1_)"/>
  <path d="M111.49,29.67 C116.82,38.27 119.6,48.51 119.6,59.9 C119.6,76.8 113.5,91.1 102,101.3 C91.4,110.6 77,115.8 61.6,115.8 C43.54,115.8 24.6,108.45 13.42,92.86 C24.18,110.52 44.42,118.8 63.6,118.8 C79,118.8 93.4,113.6 104,104.3 C115.5,94.1 121.6,79.8 121.6,62.9 C121.6,50.16 118.13,38.84 111.49,29.67 Z" fill="#EB8F00"/>
  <path d="M120.39,82.08 C119.28,76.56 113.9,72.98 108.37,74.1 C107.55,74.27 106.75,74.53 106,74.89 C106.35,69.28 102.09,64.44 96.48,64.09 C92.91,63.87 89.49,65.53 87.46,68.47 C83.81,73.93 84.78,81.71 86.46,87.83 C87.46,91.44 86.23,95.31 83.33,97.68 L83.33,97.68 C103.61,101.57 113.56,97.78 118.88,89.68 C120.38,87.45 120.92,84.71 120.39,82.08 Z" fill="#E53935"/>
  <path d="M98.09,100.78 C96.95,100.78 87.18,99.87 83.25,97.67 C83.4,97.44 89.25,97.61 97.86,97.75 C100.79,97.81 103.71,97.5 106.55,96.81 C110.55,95.81 114.31,93.81 116.55,90.28 C117.85,88.28 119.2,85.54 118.95,83.13 C118.49,80.02 117.04,77.14 114.82,74.92 C116.53,75.44 118.07,76.4 119.29,77.7 C122.57,81.64 122.09,87.28 119.06,91.92 C115.25,97.84 108.32,100.78 98.09,100.78 Z" fill="#C62828"/>
  <path d="M90.56,67.63 C91.74,66.58 93.22,65.91 94.8,65.74 C96.42,65.62 98.3,66.43 98.64,68.02 C98.77,69.12 98.41,70.22 97.64,71.02 C96.91,71.87 96.01,72.54 95.32,73.41 C93.45,75.75 93.38,79.04 91.97,81.68 C91.47,82.61 90.46,83.55 89.5,83.12 C89.2,82.97 88.95,82.75 88.76,82.48 C85.38,78.36 86.6,71 90.56,67.63 Z" fill="#EF5350"/>
  <path d="M104.73,79.1 C104.36,79.36 103.91,79.47 103.46,79.41 C103,79.31 102.62,78.98 102.46,78.54 C102.29,78.06 102.42,77.53 102.79,77.19 C103.15,76.74 103.4,76.22 103.54,75.67 C103.84,74.52 103.92,73.33 103.79,72.15 C103.64,70.26 102.27,67.5 101.49,65.77 C103.25,66.86 104.66,68.44 105.55,70.31 C106.17,71.87 106.46,73.53 106.42,75.21 C106.5,76.64 105.94,78.03 104.89,79.01 L104.73,79.1 Z" fill="#C62828"/>
  <path d="M97.43,55.43 L97.24,55.16 C97.06,54.9 96.86,54.65 96.65,54.41 C95.94,53.59 95.12,52.86 94.23,52.24 C93.03,51.4 91.73,50.71 90.36,50.19 C89.61,49.9 88.84,49.65 88.06,49.46 C87.67,49.36 87.24,49.26 86.81,49.18 L86.21,49.07 C86.4,48.96 86.59,48.85 86.79,48.75 L88.54,47.83 C89.68,47.25 90.74,46.75 91.64,46.34 C92.54,45.93 93.28,45.65 93.78,45.46 L94.54,45.18 L94.76,45.1 C96.19,44.58 96.93,42.99 96.4,41.56 C96.01,40.51 95.03,39.79 93.91,39.75 C93.49,39.73 93.08,39.73 92.66,39.75 C91.65,39.84 90.64,40.01 89.66,40.26 C88.32,40.59 87.01,41.03 85.73,41.56 C85.05,41.85 84.33,42.14 83.64,42.49 C82.95,42.84 82.2,43.23 81.58,43.57 C80.96,43.91 80.21,44.38 79.58,44.81 C78.95,45.24 78.3,45.69 77.7,46.13 C76.59,46.95 75.55,47.86 74.57,48.83 C73.84,49.55 73.17,50.33 72.57,51.17 C72.36,51.43 72.16,51.71 72,52 L71.86,52.23 C71.49,52.88 71.4,53.65 71.61,54.37 C71.64,54.61 71.7,54.84 71.78,55.06 C72.35,56.47 73.96,57.16 75.38,56.59 L75.63,56.49 L75.92,56.37 L76.16,56.32 L76.96,56.12 C77.28,56.04 77.67,55.98 78.09,55.91 C79.08,55.77 80.09,55.69 81.09,55.69 C82.28,55.69 83.46,55.78 84.64,55.94 C84.84,55.94 85.37,56.04 85.58,56.09 L86.42,56.26 C87.01,56.39 87.58,56.51 88.11,56.68 C89.07,56.94 90.02,57.28 90.93,57.68 C91.54,57.95 92.12,58.27 92.69,58.62 C93.09,58.86 93.29,59 93.29,59 L93.57,59.21 C94.78,60.11 96.49,59.85 97.39,58.64 C98.1,57.68 98.11,56.38 97.41,55.42 L97.43,55.43 Z" fill="#422B0D"/>
  <path d="M72.86,84.93 C74.57,83.42 75.64,81.33 75.86,79.06 C76.05,75.46 75.13,74.22 73.95,72.65 C71.24,69 63.55,69.87 63.55,69.87 C61.55,69.95 59.11,70.93 59.4,73.31 C59.79,74.66 60.89,75.69 62.27,76 C65.27,76.73 69.64,76 69.76,79.09 C69.9,82.55 64.58,81.09 64.16,84.79 C63.74,88.49 69.76,87.98 69.76,90.5 C69.76,92.43 67.76,92.76 65.69,93.2 C63.9,93.57 60.46,94.13 60.18,96.2 C59.9,98.27 61.09,100.77 65.93,100.04 C73.54,98.89 76.1,94.72 76.1,92.16 C76.15,89.39 74.96,86.74 72.86,84.93 Z" fill="#422B0D"/>
  <path d="M43.4,31.06 L43.4,31.06 C45.61,30.39 45.29,27.17 42.8,27.42 C40.86,27.65 38.97,28.18 37.2,29 C32.36,31.16 28.54,35.1 26.52,40 C25.62,42.3 28.66,43.45 29.85,41.57 C33.06,36.65 37.83,32.94 43.4,31.06 Z" fill="#422B0D"/>
  <path d="M43.67,40.94 L43.67,40.94 C39.48,40.94 35.67,44.48 35.67,50.36 C35.67,56.24 39.48,59.77 43.67,59.77 L43.67,59.77 C47.86,59.77 51.67,56.23 51.67,50.36 C51.67,44.49 47.86,40.94 43.67,40.94 Z" fill="#422B0D"/>
  <path d="M43.28,44.87 L43.28,44.87 C41.86,44.19 40.15,44.79 39.46,46.21 C38.93,47.32 39.17,48.65 40.06,49.51 L40.06,49.51 C41.48,50.19 43.19,49.59 43.88,48.17 C44.41,47.06 44.17,45.73 43.28,44.87 Z" fill="#896024"/>
</svg>
